X: 96
P: Polska efter \AAsg\aalingen
O: Klarlvsdalen
S: Bengt Jonsson
Z: John Chambers <jc@trillian.mit.edu>
R: polska
M: 3/4
L: 1/8
K: D
|:"D"f2 {g}(3fef d2 | f2 {g}(3fef "G"g(b \
| "A7"e)>(f e)>(d c)>B |1,3 "D"(3ABc (MdMA) FD :|2,4 "A7"(3ABc "D"d4 :|
|:"D"A2 (3DFA (3DFA | "G"B2 (3DGB (3DGB \
| "A7"c2 (3Ace (3Ace |1,3 "D"d>(c d)f "(A7)"A2 :|2,4 "D"{c}d2 d4 :|
